X:1
T:Ventum ad supremum
T:Daniel Friderici
T:Source : Bicinia sacra---Rostock---J.Richelius---1642. Editor : André Vierendeels (13/07/17).
T:Notes : Original clefs :  G2, G2 Editorial accidentals above the staff
T:Ventum ad supremum
T:©
T:©
T:©
C:Daniel Friderici
Z:©
%%score [ 1 2 ]
L:1/8
Q:1/4=120
M:2/2
K:C
V:1 treble nm="Soprano 1" snm="S 1"
V:2 treble nm="Soprano 2" snm="S 2"
V:1
 G3 A B2 G2 | g4 e4 | d8 | z8 | G3 A B2 G2 | g4 e4 | d8 | z2 d4 e2 | f2 g2 a2 f2 | e4 z4 | %10
w: Ven- tum ad su-|pre- mum|est,||ven- tum ad su-|pre- mum|est,|ven- tum|ad su- pre- mum|est,|
 z4 z2 d2 | e2 e2 f4 | e2 f2 d2 d2 | cBcd e2 de | f4 e2 c2 | g4 c4 | z2 G2 d4 | G4 z2 g2 | a4 A4 | %19
w: mun-|dus dat si-|gna, mun- dus dat|si- * * * * * *|* gna ru-|i- nae,|ru- i-|nae, ru-|i- nae,|
 z2 e2 f4 | F4 z2 f2 | g4 G2 g2 | efgf edcB | A2 G2 z4 :: B4 B2 c2- | c2 d2 e>de>d | e>de>d e4 | %27
w: ru- i-|nae, ru-|i- nae, ru-|i- * * * * * * *|* nae,|quem non si-|* gna mo- * * *||
 d2 c4 c2 | d2 e2 f>ef>e | f>ef>e f4 | e2 g2 f2 e2 | d2 c2 z2 g2 | f2 e2 d2 c2 | z2 g2 f2 e2 | %34
w: vent, quem non|si- gna mo- * * *||vent, hunc su- a|pae- na, hunc|su- a pae- na,|hunc su- a|
 d2 c2 BGAB/c/ | d2 e2 d4 | c2 e2 g4 | e4 c3 A | BG c3 B/A/ B2 | c8 :| %40
w: pae- na ma- * * * *||net, hunc su-|a pae- na|ma- * * * * *|net.|
V:2
 z8 | z8 | G3 A B2 G2 | g4 e4 | d8 | z8 | d3 e f2 d2 | a6 g2 | a2 e2 f2 d2 | c4 d4 | e2 e2 f4 | %11
w: ||Ven- tum ad su-|pre- mum|est,||Ven- tum ad su-|pre- mum|est, ad su- pre-|mun est,|mun- dus dat|
 e2 c2 d2 d2 | e2 de f4 | edef g2 fg | a2 d2 g4 | c4 z2 d2 | d4 G4 | z2 g2 a4 | A4 z2 e2 | f4 F4 | %20
w: si- gna, mun- dus|dat si- * *|* * * * gna ru- i-|nae, ru- i-|nae, ru-|i- nae,|ru- i-|nae, ru-|i- nae,|
 z2 f2 g4 | G4 z2 e2 | gfed cBAG | F2 C2 z4 :: G4 G2 A2- | A2 B2 c>Bc>B | c>Bc>B c4 | B2 e4 e2 | %28
w: ru- i-|nae, ru-|i- * * * * * * *|* nae,|quem non si-|* gna mo- * * *||vent, quem non|
 f2 e2 d>cd>c | d>cd>c d4 | c4 z2 g2 | f2 e2 d2 c2 | z2 g2 f2 e2 | d2 c2 z2 g2 | f2 e2 d2 c2 | %35
w: si- gna mo- * * *||vent, hunc|su- a pae- na,|hunc su- a|pae- na, hunc|su- a pae- na|
 BG c3 B/A/ B2 | c2 c2 e4 | c2 g4 e2 | d2 e2 d4 | c8 :| %40
w: ma- * * * * *|net, hunc su-|a pae- na|ma- * *|net.|

